X: 8922
T: Curlews, The
R: reel
M: 4/4
K: Bminor
|:fB B2 Bcde|fece a3 e|faed cA A2|cAce a2 ba|
fB B2 Bcde|fece a3 f|g3 e f3 e|dcBA FB B2:|
|:(3Bcd cd BF~F2|DF~F2 Bcd2|ecBc AE~E2|cE E2 ABcA|
(3Bcd cd BF~F2|DF~F2 Bcdf|ecBc fcec|dcBA FB B2:|

